X: 37337
T: Skylark, The
R: reel
M: 4/4
K: Dmajor
|:agfd efdB|AF F2 DFAd|BG G2 EFGE|FA A2 BAFA|
agfd efdB|AF F2 DFAd|BGGF E2 ag|f/g/a eg fddf:|
|:adfd Adfd|efed cA A2|a2 fa bged|Beed efge|
f2 fa g2 ge|f2 fe dBAG|FAdF G2 ag|f/g/a eg fddf:|

